X:1
T:Lesson 7 - Country Gardens
M:C
K:D
L:1/8
vd2 dc B2 B2|A2 AG F2 FG|A2 D2 E2 G2|F3 E D4|d2 dc B2 B2|A2 AG F2 FG|A2 D2 E2 G2|F3 E D4|
vdedB cB A2|dedB cB A2|dedc B2 e2|c2 B2 A2 FG|uA2 dc B2 B2|ABAG F2 FG|A2 D2 E2 G2|F3 E D4|]
